!!!COM: Skroup, Frantisek Jan
!!!CDT: 1842-1891
!!!OTL: National Anthem, Czech Republic
!!!ENC: Davis, Matthew J.
!!Vocal Line Only
**kern
*clefG2
*k[f#c#]
*D:
*M4/4
=1-
4r
2a
8b
8a
=2
4e
2g
8f#
8e
=3
2d
4r
8d
8d
=4
8d
8g
2g
8a
8b
=5
8a
8f#
2d
8d
8d
=6
8d
8g
8g
8b
4dd
8cc#
8b
=7
4b
4a
4r
8a
8a
=8
[2a
8a]
8b
8a
8g
=9
2f#
4r
8a
8a
=10
[2cc#
8cc#]
8b
8a
8g
=11
2f#
4r
8f#
8f#
=12
4.f#
8f#
4f#
8g#
8a#
=13
8a#
8b
4b
4r
8b
8b
=14
4b
2an
8g
8an
=15
4f#
2dd
8cc#
8b
=16
4b
2a
8e
8f#
=17
2d
2r
==|!
*-
